documentation/_misc/rocketSketch.svg

<?xml version="1.0" encoding="UTF-8" standalone="no"?>
<svg
   x="0"
   y="0"
   width="313.79999"
   height="289.20001"
   style="fill:none"
   version="1.1"
   id="svg2034"
   sodipodi:docname="rocketSketch.svg"
   inkscape:version="1.2.2 (b0a84865, 2022-12-01)"
   xmlns:inkscape="http://www.inkscape.org/namespaces/inkscape"
   xmlns:sodipodi="http://sodipodi.sourceforge.net/DTD/sodipodi-0.dtd"
   xmlns="http://www.w3.org/2000/svg"
   xmlns:svg="http://www.w3.org/2000/svg">
  <defs
     id="defs2038" />
  <sodipodi:namedview
     id="namedview2036"
     pagecolor="#ffffff"
     bordercolor="#000000"
     borderopacity="0.25"
     inkscape:showpageshadow="2"
     inkscape:pageopacity="0.0"
     inkscape:pagecheckerboard="0"
     inkscape:deskcolor="#d1d1d1"
     showgrid="false"
     inkscape:zoom="1.8821752"
     inkscape:cx="215.44222"
     inkscape:cy="142.12279"
     inkscape:window-width="1390"
     inkscape:window-height="1205"
     inkscape:window-x="423"
     inkscape:window-y="91"
     inkscape:window-maximized="0"
     inkscape:current-layer="svg2034" />
  <svg
     class="role-diagram-draw-area"
     version="1.1"
     id="svg1978"
     width="100%"
     height="100%"
     transform="translate(-18.8,-9)">
    <g
       class="shapes-region"
       style="fill:none;stroke:#000000"
       id="g1970">
      <g
         class="composite-shape"
         id="g1904">
        <path
           class="real"
           d="M 18.8,9 H 332.6 V 298.2 H 18.8 Z"
           style="fill:#ffffff;fill-opacity:1;stroke:none;stroke-width:1;stroke-opacity:1"
           id="path1902" />
      </g>
      <g
         class="arrow-line"
         id="g1908">
        <path
           class="connection real"
           stroke-dasharray="1.125, 3.35"
           d="M 130,20 V 280"
           style="fill:none;fill-opacity:1;stroke:#9b9b9b;stroke-width:1;stroke-opacity:1"
           id="path1906" />
      </g>
      <g
         class="grouped-shape"
         id="g1928">
        <g
           class="grouped-shape"
           id="g1918">
          <g
             class="composite-shape"
             id="g1912">
            <path
               class="real"
               d="m 127.48,55.81 -37.67,17.56 45,96.5 37.66,-17.57 z"
               style="fill:#cbcbcb;fill-opacity:1;stroke:#000000;stroke-width:1"
               id="path1910" />
          </g>
          <g
             class="composite-shape"
             id="g1916">
            <path
               class="real"
               d="m 96.71,38.99 -6.9,34.38 37.67,-17.56 z"
               style="fill:#cbcbcb;fill-opacity:1;stroke:#000000;stroke-width:1"
               id="path1914" />
          </g>
        </g>
        <g
           class="composite-shape"
           id="g1926">
          <path
             class="real"
             d="m 135.62,107.79 c -1.39,-2.98 -5.01,-4.24 -8.07,-2.81 -3.07,1.43 -4.43,5.01 -3.04,7.99 1.39,2.98 5,4.24 8.07,2.81 3.07,-1.43 4.43,-5.01 3.04,-7.99 z"
             style="fill:#cbcbcb;fill-opacity:1;stroke:#000000;stroke-width:1"
             id="path1920" />
          <path
             class="real"
             d="m 135.62,107.79 -11.11,5.18"
             style="fill:none;fill-opacity:1;stroke:#000000;stroke-width:1"
             id="path1922" />
          <path
             class="real"
             d="m 127.55,104.98 5.03,10.8"
             style="fill:none;fill-opacity:1;stroke:#000000;stroke-width:1"
             id="path1924" />
        </g>
      </g>
      <g
         class="arrow-line"
         id="g1932">
        <path
           class="connection real"
           stroke-dasharray="none"
           d="m 187,232.13 c 7,-3.5 12.25,-7 15.75,-10"
           style="fill:none;fill-opacity:1;stroke:#000000;stroke-width:1"
           id="path1930" />
      </g>
      <g
         class="arrow-line"
         id="g1940">
        <path
           class="connection real"
           stroke-dasharray="none"
           d="M 41,281 H 307.67"
           style="fill:none;fill-opacity:1;stroke:#000000;stroke-width:1"
           id="path1934" />
        <g
           stroke="none"
           fill="#000"
           transform="rotate(180,154.83333,140.5)"
           style="fill:#000000;stroke:none;stroke-width:1"
           id="g1938">
          <path
             d="M 12,-3 0,0 12,3 Z"
             id="path1936" />
        </g>
      </g>
      <g
         class="arrow-line"
         id="g1948">
        <path
           class="connection real"
           stroke-dasharray="none"
           d="M 41,281 40.34,33.67"
           style="fill:none;fill-opacity:1;stroke:#000000;stroke-width:1"
           id="path1942" />
        <g
           stroke="none"
           fill="#000"
           transform="rotate(89.85,4.2918274,36.052865)"
           style="fill:#000000;stroke:none;stroke-width:1"
           id="g1946">
          <path
             d="M 12,-3 0,0 12,3 Z"
             id="path1944" />
        </g>
      </g>
      <g
         class="arrow-line"
         id="g1952">
        <path
           class="connection real"
           stroke-dasharray="none"
           d="m 130,250 c 20.5,0 39.25,-4.12 58.5,-13.62"
           style="fill:none;fill-opacity:1;stroke:#000000;stroke-width:1"
           id="path1950" />
      </g>
      <g
         class="arrow-line"
         id="g1956">
        <path
           class="connection real"
           stroke-dasharray="5, 4, 10, 2"
           d="M 84.5,12.95 202.33,265.67"
           style="fill:none;fill-opacity:1;stroke:#585858;stroke-width:1;stroke-opacity:1"
           id="path1954" />
      </g>
      <g
         class="grouped-shape"
         id="g1966">
        <g
           class="arrow-line"
           id="g1960">
          <path
             class="connection real"
             stroke-dasharray="5, 4, 10, 2"
             d="m 154.23,162.3 61.6,75.46"
             style="fill:#ff1f1f;fill-opacity:1;stroke:#9b9b9b;stroke-width:1;stroke-opacity:1"
             id="path1958" />
        </g>
        <g
           class="composite-shape"
           id="g1964">
          <path
             class="real"
             d="m 154.23,162.3 12.67,34.9 19.27,-15.95 z"
             style="fill:#ff1f1f;fill-opacity:1;stroke:#000000;stroke-width:1"
             id="path1962" />
        </g>
      </g>
      <g
         id="g1968" />
    </g>
    <g
       id="g1972" />
    <g
       id="g1974" />
    <g
       id="g1976" />
  </svg>
  <svg
     width="660"
     height="300"
     style="font-family:Asana-Math, Asana"
     version="1.1"
     id="svg2032"
     transform="translate(-18.8,-9)">
    <g
       id="g1994">
      <g
         id="g1992">
        <g
           id="g1990">
          <g
             id="g1988">
            <g
               id="g1986">
              <g
                 id="g1984">
                <g
                   transform="translate(300.5,295.66406)"
                   id="g1982">
                  <path
                     transform="scale(0.017,-0.017)"
                     d="m 9,1 c 15,-8 31,-12 43,-12 33,0 72,29 103,76 l 76,117 11,-69 c 13,-85 36,-124 72,-124 22,0 54,17 86,46 l 49,44 -9,19 C 404,68 379,53 363,53 c -15,0 -28,10 -38,30 -9,19 -20,56 -25,85 l -18,101 35,49 c 47,65 74,88 105,88 16,0 28,-8 33,-23 l 14,4 15,85 c -12,7 -21,10 -30,10 -40,0 -80,-36 -142,-128 l -37,-55 -6,48 c -12,99 -39,135 -98,135 -26,0 -48,-8 -57,-21 L 56,378 73,368 c 30,34 50,48 69,48 33,0 55,-41 72,-139 l 11,-62 -40,-62 C 142,86 108,54 80,54 65,54 54,58 52,63 L 41,91 21,88 C 21,53 13,27 9,1 Z"
                     stroke="#000000"
                     stroke-opacity="1"
                     stroke-width="8"
                     fill="#000000"
                     fill-opacity="1"
                     id="path1980" />
                </g>
              </g>
            </g>
          </g>
        </g>
      </g>
    </g>
    <g
       id="g2010">
      <g
         id="g2008">
        <g
           id="g2006">
          <g
             id="g2004">
            <g
               id="g2002">
              <g
                 id="g2000">
                <g
                   transform="translate(25.5625,43.664062)"
                   id="g1998">
                  <path
                     transform="scale(0.017,-0.017)"
                     d="m 322,-11 c 12,0 21,2 50,10 11,62 19,96 30,143 H 380 L 358,82 c -6,-18 -18,-25 -39,-25 -12,0 -28,2 -49,7 l -18,4 c -33,7 -67,12 -86,12 -32,0 -59,-6 -95,-21 l 339,382 6,32 -9,9 -23,-23 c -10,-10 -20,-14 -34,-14 -34,0 -86,8 -134,21 l -18,5 c -28,7 -48,11 -62,11 -17,0 -37,-3 -61,-10 L 43,350 h 21 l 30,58 c 17,4 26,5 39,5 41,0 73,-15 126,-15 36,0 60,6 93,23 L -1,21 8,-6 c 29,23 56,32 91,32 63,0 154,-37 223,-37 z"
                     stroke="#000000"
                     stroke-opacity="1"
                     stroke-width="8"
                     fill="#000000"
                     fill-opacity="1"
                     id="path1996" />
                </g>
              </g>
            </g>
          </g>
        </g>
      </g>
    </g>
    <g
       id="g2020">
      <g
         id="g2018">
        <g
           id="g2016">
          <g
             transform="translate(187,225.75)"
             id="g2014">
            <path
               transform="scale(0.017,-0.017)"
               d="m 183,-16 c 157,0 270,155 272,303 3,183 -239,220 -228,335 7,76 129,67 186,33 h 10 c -3,12 -6,26 -12,39 -95,21 -244,4 -255,-97 -7,-57 68,-104 110,-133 v -6 C 123,426 31,304 29,160 27,53 70,-16 183,-16 Z m 26,28 c -84,0 -104,87 -103,155 2,128 47,244 181,281 62,-49 94,-98 93,-179 C 378,174 327,12 209,12 Z"
               stroke="#000000"
               stroke-opacity="1"
               stroke-width="8"
               fill="#000000"
               fill-opacity="1"
               id="path2012" />
          </g>
        </g>
      </g>
    </g>
    <g
       id="g2030">
      <g
         id="g2028">
        <g
           id="g2026">
          <g
             transform="translate(150.75,238.75)"
             id="g2024">
            <path
               transform="scale(0.017,-0.017)"
               d="m 622,285 c 2,143 -117,189 -240,188 16,75 25,151 50,226 v 6 c -14,-5 -28,-12 -43,-21 L 354,473 C 184,474 30,367 27,185 24,37 142,-8 268,-16 l -39,-273 c 20,7 38,15 53,28 1,82 6,163 17,245 182,13 319,103 323,301 z M 539,273 C 537,130 451,11 301,6 l 76,443 C 487,447 541,380 539,273 Z M 349,449 270,5 c -115,9 -164,68 -162,182 3,149 88,257 241,262 z"
               stroke="#000000"
               stroke-opacity="1"
               stroke-width="8"
               fill="#000000"
               fill-opacity="1"
               id="path2022" />
          </g>
        </g>
      </g>
    </g>
  </svg>
</svg>

﻿<svg xmlns="http://www.w3.org/2000/svg" xmlns:xlink="http://www.w3.org/1999/xlink" x="0" y="0" width="662" height="302" style="
        width:662px;
        height:302px;
        background: #FFF;
        fill: none;
">
        
        
        <svg xmlns="http://www.w3.org/2000/svg" class="role-diagram-draw-area"><g class="shapes-region" style="stroke: black; fill: none;"><g class="grouped-shape"><g class="grouped-shape"><g class="grouped-shape"><g class="arrow-line"><path class="connection real" stroke-dasharray="5 4 10 2" d="  M211.41,13.95 L95.42,261.74" style="stroke: rgb(155, 155, 155); stroke-opacity: 1; stroke-width: 1; fill: none; fill-opacity: 1;"/></g><g class="grouped-shape"><g class="grouped-shape"><g class="composite-shape"><path class="real" d=" M159.7,65.51 L205.02,86.64 L150.89,202.72 L105.57,181.59 Z" style="stroke-width: 1; stroke: rgb(0, 0, 0); fill: none; fill-opacity: 1;"/></g><g class="composite-shape"><path class="real" d=" M196.72,45.28 L205.02,86.64 L159.7,65.51 Z" style="stroke-width: 1; stroke: rgb(0, 0, 0); fill: none; fill-opacity: 1;"/></g></g><g class="composite-shape"><path class="real" d=" M149.91,128.04 C151.59,124.46 155.93,122.95 159.62,124.67 C163.31,126.39 164.95,130.69 163.28,134.28 C161.61,137.86 157.26,139.37 153.57,137.65 C149.88,135.93 148.24,131.63 149.91,128.04 Z" style="stroke-width: 1; stroke: rgb(0, 0, 0); fill: none; fill-opacity: 1;"/><path class="real" d=" M149.91,128.04 L163.28,134.28" style="stroke-width: 1; stroke: rgb(0, 0, 0); fill: none; fill-opacity: 1;"/><path class="real" d=" M159.62,124.67 L153.57,137.65" style="stroke-width: 1; stroke: rgb(0, 0, 0); fill: none; fill-opacity: 1;"/></g></g></g><g class="grouped-shape"><g class="arrow-line"><path class="connection real" stroke-dasharray="5 4 10 2" d="  M128.11,192.31 L111.98,270.91" style="stroke: rgb(155, 155, 155); stroke-opacity: 1; stroke-width: 1; fill: none; fill-opacity: 1;"/></g><g class="composite-shape"><path class="real" d=" M128.11,192.31 L132.19,222.62 L112.04,218.34 Z" style="stroke-width: 1; stroke: rgb(0, 0, 0); fill: rgb(74, 74, 74); fill-opacity: 1;"/></g></g></g><g class="arrow-line"><path class="connection real" stroke-dasharray="" d="  M103.33,246.5 C107.5,248.75 110.75,249.75 115.67,250.17" style="stroke: rgb(0, 0, 0); stroke-width: 1; fill: none; fill-opacity: 1;"/></g></g><g class="arrow-line"><path class="connection real" stroke-dasharray="" d="  M41,281 L307.67,281" style="stroke: rgb(0, 0, 0); stroke-width: 1; fill: none; fill-opacity: 1;"/><g stroke="none" transform="matrix(-1,1.2246467991473532e-16,-1.2246467991473532e-16,-1,309.66666666666674,281.00000000000006)" style="stroke: none; stroke-width: 1; fill: rgb(0, 0, 0);" fill="#000"><path d=" M12,-3 L0,0 L12,3 Z"/></g></g><g class="arrow-line"><path class="connection real" stroke-dasharray="" d="  M41,281 L40.34,33.67" style="stroke: rgb(0, 0, 0); stroke-width: 1; fill: none; fill-opacity: 1;"/><g stroke="none" fill="#000" transform="matrix(0.002617990887417249,0.9999965730559848,-0.9999965730559848,0.002617990887417249,40.33333333333334,31.66666666666667)" style="stroke: none; fill: rgb(0, 0, 0); stroke-width: 1;"><path d=" M12,-3 L0,0 L12,3 Z"/></g></g><g/></g><g/><g/><g/></svg>
        <svg xmlns="http://www.w3.org/2000/svg" xmlns:xlink="http://www.w3.org/1999/xlink" width="660" height="300" style="width:660px;height:300px;font-family:Asana-Math, Asana;background:#FFF;"><g><g><g><g><g><g><g transform="matrix(1,0,0,1,300.5,295.6640625)"><path transform="matrix(0.017,0,0,-0.017,0,0)" d="M9 1C24 -7 40 -11 52 -11C85 -11 124 18 155 65L231 182L242 113C255 28 278 -11 314 -11C336 -11 368 6 400 35L449 79L440 98C404 68 379 53 363 53C348 53 335 63 325 83C316 102 305 139 300 168L282 269L317 318C364 383 391 406 422 406C438 406 450 398 455 383L469 387L484 472C472 479 463 482 454 482C414 482 374 446 312 354L275 299L269 347C257 446 230 482 171 482C145 482 123 474 114 461L56 378L73 368C103 402 123 416 142 416C175 416 197 375 214 277L225 215L185 153C142 86 108 54 80 54C65 54 54 58 52 63L41 91L21 88C21 53 13 27 9 1Z" stroke="rgb(0,0,0)" stroke-opacity="1" stroke-width="8" fill="rgb(0,0,0)" fill-opacity="1"></path></g></g></g></g></g></g></g><g><g><g><g><g><g><g transform="matrix(1,0,0,1,25.5625,43.6640625)"><path transform="matrix(0.017,0,0,-0.017,0,0)" d="M322 -11C334 -11 343 -9 372 -1C383 61 391 95 402 142L380 142L358 82C352 64 340 57 319 57C307 57 291 59 270 64L252 68C219 75 185 80 166 80C134 80 107 74 71 59L410 441L416 473L407 482L384 459C374 449 364 445 350 445C316 445 264 453 216 466L198 471C170 478 150 482 136 482C119 482 99 479 75 472L43 350L64 350L94 408C111 412 120 413 133 413C174 413 206 398 259 398C295 398 319 404 352 421L-1 21L8 -6C37 17 64 26 99 26C162 26 253 -11 322 -11Z" stroke="rgb(0,0,0)" stroke-opacity="1" stroke-width="8" fill="rgb(0,0,0)" fill-opacity="1"></path></g></g></g></g></g></g></g><g><g><g><g transform="matrix(1,0,0,1,108,246.25)"><path transform="matrix(0.017,0,0,-0.017,0,0)" d="M183 -16C340 -16 453 139 455 287C458 470 216 507 227 622C234 698 356 689 413 655L423 655C420 667 417 681 411 694C316 715 167 698 156 597C149 540 224 493 266 464L266 458C123 426 31 304 29 160C27 53 70 -16 183 -16ZM209 12C125 12 105 99 106 167C108 295 153 411 287 448C349 399 381 350 380 269C378 174 327 12 209 12Z" stroke="rgb(0,0,0)" stroke-opacity="1" stroke-width="8" fill="rgb(0,0,0)" fill-opacity="1"></path></g></g></g></g></svg>
</svg>
